;TIME:229.07
;Filament used:0.06559m
;Layer height:0.200
; HEADER_BLOCK_START
; generated by Creality_Print V7.1.1.4472 on 2026-06-16 at 17:07:18
; total layer number: 58
; filament_density: 1.24
; filament_diameter: 1.75
; max_z_height: 7.04
; creality_uuid: f47b284e-a6d2-4300-9212-861e7346781e
; HEADER_BLOCK_END

; MINX = 103.34
; MINY = 104.11
; MINZ = 0.00
; MAXX = 116.66
; MAXY = 115.89
; MAXZ = 7.00

; multicolor_method = 0 
; THUMBNAIL_BLOCK_START

;
; THUMBNAIL_BLOCK_END

; THUMBNAIL_BLOCK_START

;
; THUMBNAIL_BLOCK_END

; external perimeters extrusion width = 0.42mm
; perimeters extrusion width = 0.45mm
; infill extrusion width = 0.45mm
; solid infill extrusion width = 0.42mm
; top infill extrusion width = 0.42mm
; first layer extrusion width = 0.46mm

; EXECUTABLE_BLOCK_START
M73 P0 R3
M201 X5000 Y5000 Z500 E5000
M203 X500 Y500 Z30 E100
M204 P5000 R2500 T5000 ; sets acceleration (P, T) and retract acceleration (R), mm/sec^2
M205 X10.00 Y10.00 Z0.40 E5.00 ; sets the jerk limits, mm/sec
; max_print_temp = 50,190
;TYPE:Custom
M220 S100 ;Reset Feedrate 
M221 S100 ;Reset Flowrate 
 
M140 S50 ;Set final bed temp 
G28 ;Home 
 
G92 E0 ;Reset Extruder 
G1 Z2.0 F3000 ;Move Z Axis up 
M104 S190 ;Set final nozzle temp 
G1 X-2.1 Y20 Z0.28 F5000.0 ;Move to start position 
M190 S50 ;Wait for bed temp to stabilize 
M109 S190 ;Wait for nozzle temp to stabilize 
G1 X-2.1 Y145.0 Z0.28 F1500.0 E15 ;Draw the first line 
G1 X-2.4 Y145.0 Z0.28 F5000.0 ;Move to side a little 
M73 P2 R3
G1 X-2.4 Y20 Z0.28 F1500.0 E30 ;Draw the second line 
G92 E0  ;Reset Extruder 
G1 E-1.0000 F1800 ;Retract a bit 
M73 P4 R3
G1 Z2.0 F3000 ;Move Z Axis up 
G1 E0.0000 F1800
G90
G21
M83 ; use relative distances for extrusion
;filament start gcode
G1 E-1.2 F2400
G1 Z.2 F9000
M106 S0
;LAYER_CHANGE
;:0.2
;HEIGHT:0.2
;BEFORE_LAYER_CHANGE
;0.2
G92 E0

;_SET_FAN_SPEED_CHANGING_LAYER
M204 P500
M205 X8 Y8
; OBJECT_ID: 136
; printing object MiniDuckBuddy.stl id:0 copy 0
G1 X116.133 Y111.539 Z.4 F9000
G1 Z.2
M73 P5 R3
G1 E1.2 F1800
;TYPE:Outer wall
;WIDTH:0.38292
G1 X116.295 Y111.553 E.00437
G1 X116.052 Y111.477 F9000
;WIDTH:0.408185
G1 F1800
G1 X116.133 Y111.539 E.00293
G1 X116.016 Y111.516 E.00344
;WIDTH:0.433449
G1 X115.898 Y111.493 E.00368
;WIDTH:0.459999
G1 X115.334 Y111.468 E.01862
G1 X114.919 Y111.422 E.01376
G1 X114.849 Y111.178 E.00836
G1 X114.708 Y111.029 E.00677
G1 X114.676 Y110.555 E.01566
G1 X114.734 Y110.307 E.00837
G1 X114.879 Y109.985 E.01164
G1 X114.942 Y110.16 E.00613
G1 X115.167 Y110.409 E.01108
G1 X115.466 Y110.519 E.01047
G1 X115.975 Y110.573 E.01687
G1 X115.944 Y110.583 E.00106
G1 X115.805 Y110.795 E.00836
G1 X115.872 Y111.036 E.00826
G1 X116.048 Y111.111 E.0063
G1 X115.942 Y111.256 E.00593
G1 X115.971 Y111.415 E.00533
;WIDTH:0.433449
G1 X116.02 Y111.452 E.0019
G1 X115.331 Y110.919 F9000
;TYPE:Inner wall
;WIDTH:0.603592
G1 F1800
G1 X115.261 Y110.919 E.0031
G1 X115.226 Y110.979 E.0031
G1 X115.261 Y111.04 E.0031
G1 X115.331 Y111.04 E.0031
G1 X115.366 Y110.979 E.0031
G1 E-1.2 F2400
;WIPE_START
G1 F1800
G1 X115.331 Y111.04
G1 X115.261 Y111.04
G1 X115.226 Y110.979
G1 X115.261 Y110.919
G1 X115.331 Y110.919
;WIPE_END
G1 X112.157 Y108.8 Z.4 F9000
G1 X111.192 Y108.156 Z.4
G1 Z.2
G1 E1.2 F1800
;WIDTH:0.526142
G1 X111.23 Y108.104 E.00245
G1 X111.221 Y108.256 E.00581
;WIDTH:0.500537
G1 X111.213 Y108.408 E.00551
;WIDTH:0.474931
G1 X111.299 Y108.811 E.01408
;WIDTH:0.459999
G1 X111.386 Y108.927 E.00478
G1 X111.756 Y109.291 E.0171
G1 X111.891 Y109.505 E.00833
G1 X112.092 Y109.896 E.01446
G1 X112.228 Y110.346 E.01552
G1 X112.309 Y110.883 E.01789
G1 X112.344 Y111.464 E.01917
G1 X112.325 Y112.434 E.03195
G1 X112.263 Y113.099 E.02199
G1 X112.162 Y113.342 E.00867
G1 X112.104 Y113.767 E.01414
G1 X112.031 Y113.887 E.00461
G1 X111.61 Y114.351 E.02066
G1 X111.159 Y114.65 E.01783
G1 X110.923 Y114.725 E.00816
G1 X110.323 Y114.843 E.02016
G1 X109.703 Y114.922 E.0206
G1 X109.282 Y114.903 E.01386
G1 X108.784 Y114.704 E.01768
G1 X108.359 Y114.344 E.01835
G1 X108.105 Y113.86 E.01801
G1 X107.912 Y113.259 E.02078
G1 X107.673 Y111.919 E.04485
G1 X107.601 Y111.294 E.02073
G1 X107.564 Y110.775 E.01716
G1 X107.704 Y110.082 E.02329
G1 X107.906 Y109.557 E.01851
G1 X108.157 Y109.177 E.015
G1 X108.555 Y108.784 E.01845
;WIDTH:0.494323
G1 X108.689 Y108.323 E.01713
;WIDTH:0.52525
G1 X108.678 Y108.135 E.00716
G1 X108.771 Y108.291 E.00692
;WIDTH:0.494323
G1 X109.179 Y108.545 E.01713
;WIDTH:0.459999
G1 X109.326 Y108.557 E.00486
G1 X109.756 Y108.455 E.01456
G1 X110.694 Y108.52 E.03098
;WIDTH:0.474931
G1 X111.063 Y108.336 E.01408
;WIDTH:0.500537
G1 X111.146 Y108.22 E.00516
;WIDTH:0.526142
G1 X111.169 Y108.189 E.00147
G1 X110.809 Y107.93 F9000
;TYPE:Outer wall
;WIDTH:0.459999
G1 F1800
G1 X111.262 Y104.726 E.10658
G1 X111.191 Y104.42 E.01035
G1 X112.313 Y104.577 E.03732
G1 X112.142 Y104.851 E.01061
G1 X111.633 Y108.467 E.12033
G1 X111.693 Y108.645 E.00619
M73 P6 R3
G1 X112.083 Y109.027 E.01798
G1 X112.388 Y109.509 E.0188
G1 X112.498 Y109.79 E.00993
G1 X112.647 Y110.312 E.01788
G1 X112.725 Y110.85 E.01791
G1 X112.761 Y111.473 E.02056
G1 X112.741 Y112.458 E.03246
G1 X112.672 Y113.2 E.02458
G1 X112.547 Y113.502 E.01075
G1 X112.516 Y113.883 E.0126
G1 X112.433 Y114.034 E.00567
G1 X112.129 Y114.421 E.01623
G1 X111.831 Y114.709 E.01363
G1 X111.332 Y115.033 E.01961
G1 X110.895 Y115.172 E.01511
G1 X110.39 Y115.254 E.01686
G1 X109.744 Y115.337 E.02146
G1 X109.181 Y115.311 E.01858
G1 X108.577 Y115.071 E.02141
G1 X108.137 Y114.738 E.01819
G1 X107.939 Y114.485 E.01056
G1 X107.717 Y114.013 E.01719
G1 X107.507 Y113.36 E.0226
G1 X107.26 Y111.98 E.0462
G1 X107.186 Y111.333 E.02145
G1 X107.145 Y110.754 E.01911
G1 X107.219 Y110.316 E.01464
G1 X107.369 Y109.76 E.01897
G1 X107.571 Y109.299 E.0166
G1 X107.819 Y108.931 E.01461
G1 X108.186 Y108.572 E.01693
G1 X108.259 Y108.383 E.00666
G1 X107.763 Y104.851 E.1175
G1 X107.591 Y104.577 E.01065
G1 X108.722 Y104.419 E.03762
G1 X108.66 Y104.611 E.00666
G1 X108.663 Y104.876 E.00871
G1 X109.102 Y107.993 E.10372
G1 X109.262 Y108.136 E.00708
G1 X109.716 Y108.033 E.01533
G1 X110.585 Y108.108 E.02874
G1 X110.754 Y108.044 E.00598
G1 X110.792 Y107.966 E.00286
G1 E-1.2 F2400
;WIPE_START
G1 F1800
G1 X111.079 Y105.987
;WIPE_END
G1 X111.681 Y104.938 Z.4 F9000
G1 Z.2
G1 E1.2 F1800
;TYPE:Inner wall
;WIDTH:0.516238
G1 X111.25 Y107.992 E.11532
;WIDTH:0.526142
G1 X111.23 Y108.104 E.00434
G1 E-1.2 F2400
;WIPE_START
G1 F1800
G1 X111.25 Y107.992
G1 X111.514 Y106.124
;WIPE_END
G1 X108.223 Y104.938 Z.4 F9000
G1 Z.2
G1 E1.2 F1800
;WIDTH:0.515348
G1 X108.657 Y108.023 E.11628
;WIDTH:0.52525
G1 X108.678 Y108.135 E.00433
G1 E-1.2 F2400
;WIPE_START
G1 F1800
G1 X108.657 Y108.023
G1 X108.395 Y106.155
;WIPE_END
G1 X110.444 Y108.64 Z.4 F9000
G1 Z.2
G1 E1.2 F1800
;TYPE:Bottom surface
;WIDTH:0.476315
G1 F2750
M73 P7 R3
G1 X111.792 Y109.988 E.06525
G1 X111.879 Y110.209 E.00813
G1 X111.978 Y110.675 E.01631
G1 X111.988 Y110.797 E.0042
G1 X109.979 Y108.788 E.09726
G1 X109.784 Y108.771 E.0067
G1 X109.437 Y108.859 E.01225
G1 X112.031 Y111.453 E.1256
G1 X112.019 Y112.054 E.02058
G1 X108.839 Y108.874 E.15398
G1 X108.817 Y108.96 E.00302
G1 X108.562 Y109.21 E.01224
G1 X111.991 Y112.639 E.16605
G1 X111.955 Y113.024 E.01322
G1 X111.902 Y113.163 E.0051
G1 X108.273 Y109.534 E.17568
G1 X108.11 Y109.838 E.0118
G1 X108.075 Y109.949 E.00398
G1 X111.796 Y113.669 E.18014
G1 X111.522 Y114.009 E.01492
G1 X107.941 Y110.427 E.17339
G1 X107.879 Y110.79 E.0126
G1 X107.893 Y110.993 E.00696
G1 X111.176 Y114.275 E.15893
G1 X111.03 Y114.363 E.00584
G1 X110.742 Y114.455 E.01033
G1 X107.96 Y111.672 E.13471
G1 X108.077 Y112.403 E.02533
G1 X110.218 Y114.543 E.10363
G1 X109.672 Y114.61 E.01882
G1 X108.21 Y113.149 E.07077
G1 X108.397 Y113.745 E.02138
G1 X108.565 Y114.1 E.01345
G1 X109.173 Y114.724 E.02985
G1 E-1.2 F2400
;WIPE_START
M73 P8 R3
G1 F4800
G1 X108.565 Y114.1
G1 X108.397 Y113.745
G1 X108.21 Y113.149
G1 X108.289 Y113.227
;WIPE_END
G1 X110.457 Y110.087 Z.4 F9000
G1 X111.181 Y109.038 Z.4
G1 Z.2
G1 E1.2 F1800
;TYPE:Gap infill
;WIDTH:0.104291
G1 X110.89 Y108.64 E.00239
G1 E-1.2 F2400
;WIPE_START
G1 F1800
G1 X111.181 Y109.038
;WIPE_END
G1 X109.22 Y108.834 Z.4 F9000
G1 Z.2
G1 E1.2 F1800
;WIDTH:0.145599
G1 X109.114 Y108.784 E.00095
;WIDTH:0.125758
G1 X108.964 Y108.661 E.00126
G1 E-1.2 F2400
;WIPE_START
G1 F1800
G1 X109.114 Y108.784
;WIPE_END
G1 X105.735 Y110.559 Z.4 F9000
G1 X103.87 Y111.539 Z.4
G1 Z.2
G1 E1.2 F1800
;TYPE:Outer wall
;WIDTH:0.40799
G1 X103.949 Y111.477 E.00291
;WIDTH:0.43306
G1 X104.029 Y111.415 E.00311
;WIDTH:0.459999
G1 X104.06 Y111.256 E.00535
G1 X103.951 Y111.111 E.00598
G1 X104.129 Y111.037 E.00636
G1 X104.195 Y110.805 E.00796
G1 X104.056 Y110.581 E.00869
G1 X104.371 Y110.555 E.0104
G1 X104.741 Y110.462 E.01259
G1 X105.014 Y110.232 E.01175
G1 X105.132 Y109.978 E.00922
G1 X105.328 Y110.603 E.02158
G1 X105.295 Y111.029 E.01408
G1 X105.192 Y111.126 E.00468
G1 X105.082 Y111.424 E.01045
G1 X104.857 Y111.46 E.00753
G1 X104.311 Y111.469 E.01796
G1 X104.091 Y111.504 E.00737
;WIDTH:0.42146
G1 X103.909 Y111.533 E.00549
G1 E-1.2 F2400
;WIPE_START
G1 F1800
G1 X103.949 Y111.477
G1 X104.029 Y111.415
G1 X104.06 Y111.256
G1 X103.951 Y111.111
G1 X104.129 Y111.037
G1 X104.195 Y110.805
G1 X104.056 Y110.581
G1 X104.371 Y110.555
G1 X104.741 Y110.462
G1 X104.81 Y110.403
;WIPE_END
G1 X104.74 Y110.917 Z.4 F9000
G1 Z.2
G1 E1.2 F1800
;TYPE:Inner wall
;WIDTH:0.606038
G1 X104.669 Y110.917 E.00313
G1 X104.634 Y110.978 E.00313
G1 X104.669 Y111.039 E.00313
G1 X104.74 Y111.039 E.00313
G1 X104.775 Y110.978 E.00313
G1 E-1.2 F2400
;WIPE_START
G1 F1800
G1 X104.74 Y111.039
G1 X104.669 Y111.039
G1 X104.634 Y110.978
G1 X104.669 Y110.917
G1 X104.74 Y110.917
;WIPE_END
G1 X103.714 Y111.552 Z.4 F9000
G1 Z.2
G1 E1.2 F1800
;TYPE:Outer wall
;WIDTH:0.38292
G1 X103.87 Y111.539 E.00419
; stop printing object MiniDuckBuddy.stl id:0 copy 0
;TIME_ELAPSED:20.146196

M106 S255
;LAYER_CHANGE
;:0.32
;HEIGHT:0.12
;BEFORE_LAYER_CHANGE
;0.32
G92 E0

G1 E-1.2 F2400
;WIPE_START
G1 F1800
G1 X103.714 Y111.552
;WIPE_END
;_SET_FAN_SPEED_CHANGING_LAYER
M204 P2500
; OBJECT_ID: 136
; printing object MiniDuckBuddy.stl id:0 copy 0
G1 X107.53 Y111.515 Z.4 F9000
G1 X116.075 Y111.432 Z.4
G1 Z.32
G1 E1.2 F1800
M204 P1000
M205 X10 Y10
;WIDTH:0.419999
G1 F1818
G1 X116.14 Y111.506 E.00184
G1 X115.422 Y111.5 E.01342
G1 X114.913 Y111.455 E.00955
G1 X114.861 Y111.326 E.0026
G1 X114.671 Y111.153 E.0048
G1 X114.651 Y110.682 E.00881
G1 X114.739 Y110.272 E.00784
G1 X114.89 Y109.944 E.00675
G1 X114.958 Y110.126 E.00363
G1 X115.201 Y110.389 E.00669
G1 X115.611 Y110.526 E.00808
G1 X116.247 Y110.553 E.01189
G1 X116.053 Y110.655 E.0041
M73 P9 R3
G1 X115.948 Y110.847 E.00409
G1 X116.011 Y111.036 E.00372
G1 X116.171 Y111.115 E.00333
G1 X116.064 Y111.272 E.00355
G1 X116.072 Y111.392 E.00225
M205 X8 Y8
M204 T2500
G1 X115.34 Y110.974 F9000
M204 P2000
M205 X10 Y10
;TYPE:Inner wall
;WIDTH:0.677406
G1 F1818
G1 X115.299 Y111.045 E.00252
G1 X115.218 Y111.045 E.00252
G1 X115.177 Y110.974 E.00252
G1 X115.218 Y110.903 E.00252
G1 X115.299 Y110.903 E.00252
G1 E-1.2 F2400
;WIPE_START
G1 F5400
G1 X115.218 Y110.903
G1 X115.177 Y110.974
G1 X115.218 Y111.045
G1 X115.299 Y111.045
G1 X115.34 Y110.974
;WIPE_END
M205 X8 Y8
G1 X112.145 Y108.887 Z.52 F9000
G1 X111.015 Y108.15 Z.52
G1 Z.32
G1 E1.2 F1800
M205 X10 Y10
;WIDTH:0.483089
G1 F1818
G1 X111.089 Y108.114 E.00179
;WIDTH:0.527613
G1 X111.174 Y108.01 E.0032
;WIDTH:0.572136
G1 X111.259 Y107.905 E.00349
G1 X111.261 Y108.05 E.00375
;WIDTH:0.527613
G1 X111.264 Y108.195 E.00345
;WIDTH:0.483089
G1 X111.373 Y108.614 E.00939
;WIDTH:0.449999
G1 X111.461 Y108.719 E.00275
G1 X111.883 Y109.124 E.01176
G1 X112.202 Y109.609 E.01167
G1 X112.423 Y110.198 E.01265
G1 X112.556 Y110.937 E.0151
G1 X112.608 Y112.1 E.02341
G1 X112.765 Y112.381 E.00647
G1 X112.837 Y112.387 E.00145
G1 X112.842 Y112.561 E.0035
G1 X112.769 Y112.904 E.00705
G1 X112.603 Y113.315 E.00891
G1 X112.215 Y113.916 E.01438
G1 X111.814 Y114.319 E.01143
G1 X111.328 Y114.704 E.01247
G1 X111.028 Y114.832 E.00656
G1 X110.17 Y115.002 E.01759
G1 X109.499 Y115.063 E.01355
G1 X109.181 Y115.011 E.00648
G1 X108.647 Y114.78 E.0117
G1 X108.362 Y114.57 E.00712
G1 X107.942 Y114.137 E.01213
G1 X107.5 Y113.368 E.01783
G1 X107.394 Y113.027 E.00718
G1 X107.257 Y112.153 E.01779
G1 X107.152 Y110.862 E.02604
G1 X107.225 Y110.216 E.01307
G1 X107.456 Y110.008 E.00625
G1 X107.643 Y109.599 E.00904
G1 X107.926 Y109.101 E.01152
G1 X108.53 Y108.496 E.01719
;WIDTH:0.487801
G1 X108.59 Y108.295 E.0046
;WIDTH:0.525603
G1 X108.649 Y108.093 E.00498
;WIDTH:0.572424
G1 X108.651 Y107.94 E.00397
G1 X108.733 Y108.064 E.00384
;WIDTH:0.525603
G1 X108.905 Y108.184 E.00498
;WIDTH:0.487801
G1 X109.078 Y108.304 E.0046
;WIDTH:0.449999
G1 X109.236 Y108.338 E.00325
G1 X109.748 Y108.254 E.01044
G1 X110.158 Y108.26 E.00825
G1 X110.699 Y108.301 E.0109
;WIDTH:0.483089
G1 X110.979 Y108.167 E.00674
M205 X8 Y8
G1 X110.771 Y107.831 F9000
M204 P1000
M205 X10 Y10
;TYPE:Outer wall
;WIDTH:0.419999
G1 F1818
G1 X110.819 Y107.727 E.00214
G1 X111.222 Y104.855 E.05419
G1 X111.059 Y104.381 E.00937
G1 X112.434 Y104.574 E.02594
G1 X112.143 Y104.986 E.00943
G1 X111.685 Y108.254 E.06166
G1 X111.744 Y108.423 E.00334
G1 F1080
G1 X112.199 Y108.86 E.01179
G1 X112.57 Y109.422 E.01258
G1 X112.724 Y109.836 E.00825
G1 X112.867 Y110.356 E.01008
G1 X112.974 Y111.077 E.01362
G1 F960
G1 X112.993 Y111.717 E.01196
G1 X113 Y111.943 E.00422
G1 F720
G1 X113.056 Y112.094 E.00301
G1 X113.186 Y112.105 E.00244
M204 P500
M205 X8 Y8
;TYPE:Overhang wall
G1 F1818
G1 X113.239 Y112.11 E.00099
G1 X113.251 Y112.55 E.00822
G1 X113.168 Y112.999 E.00853
G1 X113.113 Y113.136 E.00276
M204 P1000
M205 X10 Y10
;TYPE:Outer wall
G1 F1620
G1 X112.965 Y113.51 E.00752
G1 F960
G1 X112.756 Y113.832 E.00717
G1 X112.535 Y114.174 E.00761
G1 F1200
G1 X111.964 Y114.748 E.01513
G1 F1818
G1 X111.531 Y115.063 E.01001
G1 X111.149 Y115.226 E.00776
G1 X110.229 Y115.407 E.01752
G1 X109.485 Y115.475 E.01396
G1 X109.065 Y115.407 E.00795
G1 X108.441 Y115.137 E.0127
G1 X108.092 Y114.879 E.00811
G1 F900
G1 X107.613 Y114.385 E.01286
G1 X107.123 Y113.533 E.01837
G1 F1818
G1 X107.054 Y113.313 E.00431
M204 P500
M205 X8 Y8
;TYPE:Overhang wall
G1 X106.994 Y113.121 E.00376
G1 X106.835 Y112.045 E.02032
M204 P1000
M205 X10 Y10
;TYPE:Outer wall
G1 X106.833 Y112.02 E.00047
M204 P500
M205 X8 Y8
;TYPE:Overhang wall
G1 X106.832 Y112.008 E.00023
M204 P1000
M205 X10 Y10
;TYPE:Outer wall
G1 X106.82 Y111.89 E.00222
M204 P500
M205 X8 Y8
;TYPE:Overhang wall
G1 X106.816 Y111.851 E.00074
M204 P1000
M205 X10 Y10
;TYPE:Outer wall
G1 X106.734 Y110.998 E.01601
G1 F720
G1 X106.769 Y110.407 E.01106
G1 X106.863 Y109.975 E.00826
M73 P10 R3
G1 F1020
G1 X107.145 Y109.73 E.00698
G1 X107.344 Y109.251 E.00969
G1 X107.608 Y108.838 E.00916
G1 X108.147 Y108.326 E.01389
G1 F1818
G1 X108.206 Y108.155 E.00338
G1 X107.761 Y104.986 E.0598
G1 X107.472 Y104.574 E.0094
G1 X108.845 Y104.384 E.0259
G1 X108.698 Y104.745 E.00728
G1 X108.684 Y104.875 E.00244
G1 X109.1 Y107.824 E.05565
G1 F1140
G1 X109.27 Y107.931 E.00375
G1 X109.707 Y107.844 E.00833
G1 F1020
G1 X110.057 Y107.85 E.00654
G1 X110.603 Y107.896 E.01024
G1 X110.734 Y107.845 E.00263
G1 E-1.2 F2400
;WIPE_START
G1 F1020
G1 X110.819 Y107.727
G1 X111.077 Y105.891
;WIPE_END
M205 X8 Y8
G1 X111.68 Y104.938 Z.52 F9000
G1 Z.32
G1 E1.2 F1800
M204 P2000
M205 X10 Y10
;TYPE:Inner wall
;WIDTH:0.562098
G1 F1818
G1 X111.28 Y107.792 E.07326
;WIDTH:0.572136
G1 X111.259 Y107.905 E.00298
G1 E-1.2 F2400
;WIPE_START
G1 F5400
G1 X111.28 Y107.792
G1 X111.542 Y105.925
;WIPE_END
M205 X8 Y8
G1 X108.651 Y107.94 Z.52 F9000
G1 Z.32
G1 E1.2 F1800
M205 X10 Y10
;WIDTH:0.572424
G1 F1818
G1 X108.63 Y107.827 E.00299
;WIDTH:0.562384
G1 X108.224 Y104.94 E.07415
G1 E-1.2 F2400
;WIPE_START
G1 F5400
G1 X108.503 Y106.92
;WIPE_END
M205 X8 Y8
G1 X108.221 Y109.344 Z.52 F9000
G1 Z.32
G1 E1.2 F1800
M204 P2500
M205 X10 Y10
;TYPE:Internal solid infill
;WIDTH:0.365752
G1 F1818
G1 X108.688 Y108.888 E.01051
G1 X108.866 Y108.679 E.00443
M205 X8 Y8
G1 X111.1 Y114.301 F9000
M205 X10 Y10
;WIDTH:0.53677
G1 F1818
G1 X111.451 Y113.968 E.01173
;WIDTH:0.550656
